!!!OTL: SCHOEN IST DIE WELT
!!!ARE: Europa, Mitteleuropa, Deutschland, Oberhessen; Nassau
!!!SCT: B0618
!!!YEM: Copyright 1995, estate of Helmut Schaffrath.
**kern
*ICvox
*Ivox
*M2/4
*k[f#]
*G:
=1
{4d
8e
8f#
=2
4.g}
{16g
16a
=3
8b
8b
8dd
8b
=4
8b
8a
8r}
{8dd
=5
8.cc
16b
8a
8g
=6
8f#}
{8e
8d
8cc
=7
4b
4a
=8
4g
4r}
==
!!!AGN: Staende -, Handwerksburschen -, Wander - Lied
!!!ONB: ESAC (Essen Associative Code) Database: BOEHME
!!!AMT: simple duple
!!!AIN: vox
!!!EED: Helmut Schaffrath
!!!EEV: 1.0
*-
